packages/ffe-icons/icons/open/400/sm/remove_road.svg

<svg xmlns="http://www.w3.org/2000/svg" height="20" viewBox="0 -960 960 960" width="20"><path d="M696-492v-240.404Q696-747 706.289-757.5q10.29-10.5 25.5-10.5Q747-768 757.5-757.65 768-747.3 768-732v240.404Q768-477 757.711-466.5q-10.29 10.5-25.5 10.5Q717-456 706.5-466.35 696-476.7 696-492ZM192-227.981v-503.727Q192-747 202.289-757.5q10.29-10.5 25.5-10.5Q243-768 253.5-757.656q10.5 10.345 10.5 25.637v503.727Q264-213 253.711-202.5q-10.29 10.5-25.5 10.5Q213-192 202.5-202.344 192-212.689 192-227.981Zm252-431.931v-71.825Q444-747 454.289-757.5q10.29-10.5 25.5-10.5Q495-768 505.5-757.675 516-747.35 516-732.088v71.825Q516-645 505.711-634.5q-10.29 10.5-25.5 10.5Q465-624 454.5-634.325 444-644.65 444-659.912Zm0 216v-71.825Q444-531 454.289-541.5q10.29-10.5 25.5-10.5Q495-552 505.5-541.675 516-531.35 516-516.088v71.825Q516-429 505.711-418.5q-10.29 10.5-25.5 10.5Q465-408 454.5-418.325 444-428.65 444-443.912Zm0 216v-71.825Q444-315 454.289-325.5q10.29-10.5 25.5-10.5Q495-336 505.5-325.675 516-315.35 516-300.088v71.825Q516-213 505.711-202.5q-10.29 10.5-25.5 10.5Q465-192 454.5-202.325 444-212.65 444-227.912ZM732-177l-56 56q-10.636 11-24.818 10.5Q637-111 625.522-122 615-133 615-147.5t11-25.5l55-55-56-56q-11-11-10.5-25.5T626-335q11-11 25.667-11 14.666 0 25.333 11l55 56 56-56q11-11 25.5-11t25.978 11Q850-324 850-309.5T839-284l-56 56 56.162 56.319Q850-161 850-146.818T839-122q-11 11-25.5 11t-25.181-10.676L732-177Z"/></svg>

<svg xmlns="http://www.w3.org/2000/svg" height="20" viewBox="0 -960 960 960" width="20"><path d="M696-492v-240.4q0-14.6 10.29-25.1 10.29-10.5 25.5-10.5t25.71 10.35Q768-747.3 768-732v240.4q0 14.6-10.29 25.1-10.29 10.5-25.5 10.5t-25.71-10.35Q696-476.7 696-492ZM192-227.98v-503.73q0-15.29 10.29-25.79t25.5-10.5q15.21 0 25.71 10.34 10.5 10.35 10.5 25.64v503.73q0 15.29-10.29 25.79t-25.5 10.5q-15.21 0-25.71-10.34-10.5-10.35-10.5-25.64Zm252-431.93v-71.83q0-15.26 10.29-25.76 10.29-10.5 25.5-10.5t25.71 10.32q10.5 10.33 10.5 25.59v71.83q0 15.26-10.29 25.76-10.29 10.5-25.5 10.5t-25.71-10.32Q444-644.65 444-659.91Zm0 216v-71.83q0-15.26 10.29-25.76 10.29-10.5 25.5-10.5t25.71 10.32q10.5 10.33 10.5 25.59v71.83q0 15.26-10.29 25.76-10.29 10.5-25.5 10.5t-25.71-10.32Q444-428.65 444-443.91Zm0 216v-71.83q0-15.26 10.29-25.76 10.29-10.5 25.5-10.5t25.71 10.32q10.5 10.33 10.5 25.59v71.83q0 15.26-10.29 25.76-10.29 10.5-25.5 10.5t-25.71-10.32Q444-212.65 444-227.91ZM732-177l-56 56q-10.64 11-24.82 10.5T625.52-122Q615-133 615-147.5t11-25.5l55-55-56-56q-11-11-10.5-25.5T626-335q11-11 25.67-11 14.66 0 25.33 11l55 56 56-56q11-11 25.5-11t25.98 11Q850-324 850-309.5T839-284l-56 56 56.16 56.32Q850-161 850-146.82T839-122q-11 11-25.5 11t-25.18-10.68L732-177Z"/></svg>
